X: 40330
T: Tom Bombadil's
R: polka
M: 2/4
K: Eminor
|:e>d BA|B/c/d e2|e>d BA|G2 F2|
e>d BA|B/c/d ef|g>a gf|e2 d2:|
|:e>f ga|ba gf|a>g fe|d2 B2|
e>f ga|gf ed|e/f/e/d/ Bd|e2 e2:|

